svg/Gray/viewport.svg

<svg height="48" viewBox="0 0 48 48" width="48" xmlns="http://www.w3.org/2000/svg"><g stroke="#0066b3" stroke-linecap="round" stroke-linejoin="round"><g transform="translate(3.094272 1.554399)"><path d="m39.111223 37.403963-33.4399764.000086-1.9505183-.697525-1.0204958-1.64466v-1.508424l1.124802-1.612471 1.1196831-.600688" fill="none"/><path d="m4.9447176 31.340281 1.5937403-.304668 2.0623961-.046338v-23.4845304l-3.8881688-.017591-1.3183687 1.037345-.694084 1.7028784v24.834487" fill="none"/><g fill="#0066b3" fill-opacity=".34902"><path d="m39.111223 37.403963v-27.216177"/><path d="m8.5968322 10.231398 30.5143908-.043612"/></g></g><path d="m17.768122 17.499039h20.216185v13.538363h-20.216185z" fill="#0066b3" fill-opacity=".3" stroke-width="1.5"/></g></svg>

<?xml version="1.0" encoding="UTF-8" standalone="no"?>
<!-- Generator: Adobe Illustrator 19.0.0, SVG Export Plug-In . SVG Version: 6.00 Build 0)  -->

<svg
   version="1.1"
   id="Layer_1"
   x="0px"
   y="0px"
   viewBox="0 0 48 48"
   xml:space="preserve"
   sodipodi:docname="viewport.svg"
   width="48"
   height="48"
   inkscape:version="1.2.2 (b0a8486541, 2022-12-01)"
   xmlns:inkscape="http://www.inkscape.org/namespaces/inkscape"
   xmlns:sodipodi="http://sodipodi.sourceforge.net/DTD/sodipodi-0.dtd"
   xmlns="http://www.w3.org/2000/svg"
   xmlns:svg="http://www.w3.org/2000/svg"><defs
   id="defs47" /><sodipodi:namedview
   id="namedview45"
   pagecolor="#ffffff"
   bordercolor="#666666"
   borderopacity="1.0"
   inkscape:pageshadow="2"
   inkscape:pageopacity="0.0"
   inkscape:pagecheckerboard="0"
   showgrid="false"
   inkscape:zoom="10.65625"
   inkscape:cx="9.0557185"
   inkscape:cy="26.369501"
   inkscape:window-width="1920"
   inkscape:window-height="1015"
   inkscape:window-x="1366"
   inkscape:window-y="37"
   inkscape:window-maximized="1"
   inkscape:current-layer="Layer_1"
   inkscape:showpageshadow="2"
   inkscape:deskcolor="#d1d1d1" />


<g
   id="g14">
</g>
<g
   id="g16">
</g>
<g
   id="g18">
</g>
<g
   id="g20">
</g>
<g
   id="g22">
</g>
<g
   id="g24">
</g>
<g
   id="g26">
</g>
<g
   id="g28">
</g>
<g
   id="g30">
</g>
<g
   id="g32">
</g>
<g
   id="g34">
</g>
<g
   id="g36">
</g>
<g
   id="g38">
</g>
<g
   id="g40">
</g>
<g
   id="g42">
</g>
<g
   id="g1048"
   transform="translate(3.0942722,1.5543986)"><path
     style="fill:none;fill-opacity:0.34902;stroke:#0066b3;stroke-width:1;stroke-linecap:round;stroke-linejoin:round;stroke-dasharray:none"
     d="M 39.111223,37.403963 5.6712466,37.404049 3.7207283,36.706524 2.7002325,35.061864 V 33.55344 l 1.124802,-1.612471 1.1196831,-0.600688"
     id="path433"
     sodipodi:nodetypes="ccccccc" /><path
     style="fill:none;fill-opacity:0.34902;stroke:#0066b3;stroke-width:1;stroke-linecap:round;stroke-linejoin:round;stroke-dasharray:none"
     d="M 4.9447176,31.340281 6.5384579,31.035613 8.600854,30.989275 V 7.5047446 L 4.7126852,7.4871536 3.3943165,8.5244986 2.7002325,10.227377 v 24.834487"
     id="path435"
     sodipodi:nodetypes="cccccccc" /><path
     style="fill:#0066b3;fill-opacity:0.34902;stroke:#0066b3;stroke-width:1;stroke-linecap:round;stroke-linejoin:round;stroke-dasharray:none"
     d="M 39.111223,37.403963 V 10.187786"
     id="path437"
     sodipodi:nodetypes="cc" /><path
     style="fill:#0066b3;fill-opacity:0.34902;stroke:#0066b3;stroke-width:1;stroke-linecap:round;stroke-linejoin:round;stroke-dasharray:none"
     d="M 8.5968322,10.231398 39.111223,10.187786"
     id="path439"
     sodipodi:nodetypes="cc" /></g><rect
   style="fill:#0066b3;fill-opacity:0.30000001;stroke:#0066b3;stroke-width:1.5;stroke-dasharray:none;stroke-dashoffset:0;stroke-linejoin:round;stroke-linecap:round"
   id="rect361"
   width="20.216185"
   height="13.538363"
   x="17.768122"
   y="17.499039" /></svg>
